X: 18301
T: Humours Of Tulla, The
R: reel
M: 4/4
K: Gmajor
G2 DG EGDE|G2 BG AGEG|A2 EA AGEG|ABcd edBA|
G2 DG EGDE|G2 BG AGEG|c2 cd efge|dBAB G3d:|
g2 dg egde|gabg ageg|a2 ea ageg|agbg agef|
g2 dg egde|g2bg ageg|c2 (3Bcd efge|dBAB G3 d:|

